X:244
T:The Tea Time 
R:
C:Bruce Osborne - Nov. 2001
Z:abc by bosborne@kos.net
M:3/4
L:1/8
K:Gmaj
GA|B3 d BA|G3 B AG|c3 B cd|e3 g fe|\
d3 B GE|D3 G FG|A3 G FE|D3 B, DG|\
B3 d BA|G3 B AG|c3 B cd|e3 g fe|\
d3 B GE|D3 B, DG|A3 F BA|G4||\
Bc|d3 g fg|d4 BG|c3 B cd|e3 g fe|\
dB GE DB,|G,3 B, DG|A3 F AF|D4 Bc|\
d3 g fg|d4 BG|c3 B cd|e3 g fe|\
dB GE DB,|G,B, DG BG|A3 F BA|G4||
